X: 2
T: The Dark Island
R: waltz
M: 3/4
L: 1/8
K: Gmaj
|: E2 | "Dm" A3 E A2 | "Am" G3 A G2 | "F" E3 D C2 | "C" D4 GA |[1 B3 A G2 | "Am" B d3 G2 | "C" B3 A G2 | "G" A4 :|[2 "C" B3 D dB | "G7" A3 D BA | "C" G6 | G4 ||Bc | "C" d3 B d2 | B3 A G2 | "F" E3 C E2 | "C" D4 GA | B3 A G2 |"Am" B d3 GA | "C" B3 A G2 | "G" A4 EG | "Dm" A4 A2 | "Am" G4 G2 |"F" E3 D C2 | "C" D4 GA | B3 D dB | "G7" A3 D BA | "C" G6 | G6 ||


Tune 4906	Setting 25324

